svg/media/microphone_fill.svg

<?xml version="1.0" encoding="UTF-8"?>
<svg width="24px" height="24px" viewBox="0 0 24 24" version="1.1" xmlns="http://www.w3.org/2000/svg" xmlns:xlink="http://www.w3.org/1999/xlink">
    <title>microphone_fill</title>
    <g id="页面-1" stroke="none" stroke-width="1" fill="none" fill-rule="evenodd">
        <g id="Media" transform="translate(-576.000000, -48.000000)" fill-rule="nonzero">
            <g id="microphone_fill" transform="translate(576.000000, 48.000000)">
                 <path d="M24,0 L24,24 L0,24 L0,0 L24,0 Z M12.5934901,23.257841 L12.5819402,23.2595131 L12.5108777,23.2950439 L12.4918791,23.2987469 L12.4918791,23.2987469 L12.4767152,23.2950439 L12.4056548,23.2595131 C12.3958229,23.2563662 12.3870493,23.2590235 12.3821421,23.2649074 L12.3780323,23.275831 L12.360941,23.7031097 L12.3658947,23.7234994 L12.3769048,23.7357139 L12.4804777,23.8096931 L12.4953491,23.8136134 L12.4953491,23.8136134 L12.5071152,23.8096931 L12.6106902,23.7357139 L12.6232938,23.7196733 L12.6232938,23.7196733 L12.6266527,23.7031097 L12.609561,23.275831 C12.6075724,23.2657013 12.6010112,23.2592993 12.5934901,23.257841 L12.5934901,23.257841 Z M12.8583906,23.1452862 L12.8445485,23.1473072 L12.6598443,23.2396597 L12.6498822,23.2499052 L12.6498822,23.2499052 L12.6471943,23.2611114 L12.6650943,23.6906389 L12.6699349,23.7034178 L12.6699349,23.7034178 L12.678386,23.7104931 L12.8793402,23.8032389 C12.8914285,23.8068999 12.9022333,23.8029875 12.9078286,23.7952264 L12.9118235,23.7811639 L12.8776777,23.1665331 C12.8752882,23.1545897 12.8674102,23.1470016 12.8583906,23.1452862 L12.8583906,23.1452862 Z M12.1430473,23.1473072 C12.1332178,23.1423925 12.1221763,23.1452606 12.1156365,23.1525954 L12.1099173,23.1665331 L12.0757714,23.7811639 C12.0751323,23.7926639 12.0828099,23.8018602 12.0926481,23.8045676 L12.108256,23.8032389 L12.3092106,23.7104931 L12.3186497,23.7024347 L12.3186497,23.7024347 L12.3225043,23.6906389 L12.340401,23.2611114 L12.337245,23.2485176 L12.337245,23.2485176 L12.3277531,23.2396597 L12.1430473,23.1473072 Z" id="MingCute" fill-rule="nonzero"></path>
                <path d="M14.0113,4.6242 C15.6245692,6.40624808 16.1573096,8.81843669 15.609699,11.0166905 L15.5388,11.2794 L18.9394,15.6516 C19.5378,16.421 19.6589,17.4233 19.3261,18.2838 C19.4449,18.3171 19.5718562,18.3215437 19.6945656,18.2994516 L19.8154,18.2686 C20.3393,18.094 20.9057,18.3771 21.0803,18.9011 C21.255,19.425 20.9718,19.9913 20.4479,20.166 C19.6398,20.4354 18.9423,20.3007 18.4561,20.0923 C18.2627,20.0094 18.0718,19.9051 17.8995,19.7782 C17.0733133,20.1428533 16.0961631,20.0764809 15.315704,19.5575372 L15.1516,19.4394 L10.7795,16.0388 C8.51314,16.698 5.97909,16.1894 4.1259,14.5128 C6.20887,13.4967 8.16088,12.1235 9.8899,10.3945 C11.6206,8.66383 12.9948,6.70963 14.0113,4.6242 Z M12.4188,3.31314 C11.4809,5.36545 10.167,7.28896 8.47568,8.9803 C6.78603,10.6699 4.86457,11.983 2.81432,12.9207 C1.19714,10.2306 1.5484,6.68784 3.86812,4.36812 C6.18728,2.04897 9.72888,1.69731 12.4188,3.31314 Z" id="形状" fill="#09244B"></path>
            </g>
        </g>
    </g>
</svg>

<svg xmlns="http://www.w3.org/2000/svg" width="24" height="24"><g fill="none" fill-rule="nonzero"><path d="M24 0v24H0V0h24ZM12.593 23.258l-.011.002-.071.035-.02.004-.014-.004-.071-.035c-.01-.004-.019-.001-.024.005l-.004.01-.017.428.005.02.01.013.104.074.015.004.012-.004.104-.074.012-.016.004-.017-.017-.427c-.002-.01-.009-.017-.017-.018Zm.265-.113-.013.002-.185.093-.01.01-.003.011.018.43.005.012.008.007.201.093c.012.004.023 0 .029-.008l.004-.014-.034-.614c-.003-.012-.01-.02-.02-.022Zm-.715.002a.023.023 0 0 0-.027.006l-.006.014-.034.614c0 .012.007.02.017.024l.015-.002.201-.093.01-.008.004-.011.017-.43-.003-.012-.01-.01-.184-.092Z"/><path fill="#09244B" d="M14.011 4.624a6.998 6.998 0 0 1 1.599 6.393l-.071.262 3.4 4.373a2.7 2.7 0 0 1 .387 2.632.827.827 0 0 0 .369.015l.12-.03a1 1 0 0 1 .633 1.897 2.765 2.765 0 0 1-1.992-.074 2.805 2.805 0 0 1-.556-.314 2.7 2.7 0 0 1-2.584-.22l-.164-.119-4.372-3.4a7 7 0 0 1-6.654-1.526 21.43 21.43 0 0 0 5.764-4.118 21.43 21.43 0 0 0 4.121-5.77Zm-1.592-1.31A19.418 19.418 0 0 1 8.476 8.98a19.417 19.417 0 0 1-5.662 3.94 7.003 7.003 0 0 1 9.605-9.607Z"/></g></svg>
